src/lib/packages/icons/src/assets/filled/file-text.svg

<svg width="24" height="24" viewBox="0 0 24 24" fill="none" xmlns="http://www.w3.org/2000/svg">
<path d="M19.25 8.25H17C15.42 8.25 14.75 7.58 14.75 6V3.75L19.25 8.25ZM20 9.75V18C20 20 19 21 17 21H8C6 21 5 20 5 18V6C5 4 6 3 8 3H13.25V6C13.25 8.42 14.58 9.75 17 9.75H20ZM13.75 16C13.75 15.586 13.414 15.25 13 15.25H9C8.586 15.25 8.25 15.586 8.25 16C8.25 16.414 8.586 16.75 9 16.75H13C13.414 16.75 13.75 16.414 13.75 16ZM16.75 12C16.75 11.586 16.414 11.25 16 11.25H9C8.586 11.25 8.25 11.586 8.25 12C8.25 12.414 8.586 12.75 9 12.75H16C16.414 12.75 16.75 12.414 16.75 12Z" fill="currentColor"/>
</svg>

<svg xmlns="http://www.w3.org/2000/svg" width="24" height="24" fill="none"><path fill="currentColor" d="M19.25 8.25H17c-1.58 0-2.25-.67-2.25-2.25V3.75l4.5 4.5Zm.75 1.5V18c0 2-1 3-3 3H8c-2 0-3-1-3-3V6c0-2 1-3 3-3h5.25v3c0 2.42 1.33 3.75 3.75 3.75h3ZM13.75 16a.75.75 0 0 0-.75-.75H9a.75.75 0 0 0 0 1.5h4a.75.75 0 0 0 .75-.75Zm3-4a.75.75 0 0 0-.75-.75H9a.75.75 0 0 0 0 1.5h7a.75.75 0 0 0 .75-.75Z"/></svg>
